X:41
T:Avec toi, nous irons au dsert - G229
C:J. Glineau
M:C
K:Dm
A,2|"Rem"D2DE F2FG|"Do"A2Ac "Fa"A2zA|"Do"G2"Lam"AA "Rem"F2DD|"La"E4 z2:|A2|"Rem"A2"Solm"BB "Do"G2"Fa"AA|"Sib"F2"Rem"DF "Do"G2"Lam"A2|
"Rem"A2"Do"GA "Sib"F2"Rem"DF|"Do"G4 z2"Lam"A2|"Rem"A2"Do"cc "Fa"A2GF|G2AF "Sib"D2DD|G2FG"Do"E4|"Solm"D2"Lam"C2 "Re"D2||
